X:2
T:Ashover simple chords 8
M:3/4
L:1/8
K:A
[E2A,2C2E2] AB Ec | BE [cA,CE]B A2 | c4 [E2A,2C2E2] | AB Ec BE | [cA,CE]B A2 A4 |
[E2A,2C2E2] AB | Ec BE [cA,CE]B | A2 B4 | [cA,CE]e a2 a2 |
=G2 [FD,F,A,]A B2 | A4 [E2A,2C2E2] | AB Ec BE | [cA,CE]B A2 c4 |
[E2A,2C2E2] AB | Ec BE [cA,CE]B | A2 A4 | [E2A,2C2E2] AB Ec |
BE [cA,CE]B A2 | B4 [cA,CE]e | a2 a2 =G2 | [FD,F,A,]A B2 A4 |
[BE,G,B,]^A BG | EG Bc [dE,G,B,]B | c2 B4 | [AD,F,A,]G AF DF |
AB [^BD,F,A,]A =B2 | A4 [BE,G,B,]^A | BG EG Bc | [dE,G,B,]B c2 B4 |
[cA,CE]e a2 | a2 =G2 [FD,F,A,]A | B2 A4 |


